svgs/light/person-dolly-empty.svg

<svg xmlns="http://www.w3.org/2000/svg" viewBox="0 0 512 512"><!-- Font Awesome Pro 6.0.0-alpha2 by @fontawesome - https://fontawesome.com License - https://fontawesome.com/license (Commercial License) --><path d="M88 112C118.875 112 144 86.875 144 56S118.875 0 88 0S32 25.125 32 56S57.125 112 88 112ZM88 32C101.219 32 112 42.766 112 56S101.219 80 88 80S64 69.234 64 56S74.781 32 88 32ZM511.312 395.406C508.812 386.922 499.781 382.188 491.406 384.672L348.355 427.588C339.779 402.334 316.105 384 288 384C286.881 384 285.838 384.273 284.732 384.33L232.125 161.344C230.125 152.781 221.781 147.5 212.875 149.438C204.281 151.469 198.969 160.094 201 168.688L221.6 256H179.781C173.656 256 168.188 252.625 165.469 247.156L123.969 164.172C112.812 141.859 90.375 128 65.438 128C29.344 128 0 157.359 0 193.438V285.422C0 302.594 9.25 318.578 24.188 327.109L114.125 378.5L144.469 499.875C146.281 507.156 152.812 512 160 512C161.281 512 162.594 511.844 163.875 511.516C172.469 509.375 177.656 500.688 175.531 492.125L143.531 364.125C142.469 359.891 139.719 356.266 135.938 354.109L40.062 299.328C35.094 296.484 32 291.156 32 285.422V193.438C32 175 47 160 65.438 160C78.188 160 89.656 167.078 95.344 178.484L136.844 261.453C145 277.828 161.469 288 179.781 288H229.148L254.137 393.916C236.105 405.248 224 425.172 224 448C224 483.297 252.719 512 288 512C319.078 512 345.008 489.711 350.758 460.279L500.594 415.328C509.062 412.781 513.875 403.859 511.312 395.406ZM288 480C270.344 480 256 465.641 256 448S270.344 416 288 416S320 430.359 320 448S305.656 480 288 480ZM16 352C7.156 352 0 359.156 0 368V496C0 504.844 7.156 512 16 512S32 504.844 32 496V368C32 359.156 24.844 352 16 352Z"/></svg>

<svg xmlns="http://www.w3.org/2000/svg" viewBox="0 0 512 512"><!--! Font Awesome Pro 6.3.0 by @fontawesome - https://fontawesome.com License - https://fontawesome.com/license (Commercial License) Copyright 2023 Fonticons, Inc. --><path d="M88 112c30.88 0 56-25.12 56-56S118.9 0 88 0S32 25.12 32 56S57.13 112 88 112zM88 32C101.2 32 112 42.77 112 56S101.2 80 88 80S64 69.23 64 56S74.78 32 88 32zM511.3 395.4c-2.5-8.484-11.53-13.22-19.91-10.73l-143.1 42.92C339.8 402.3 316.1 384 288 384c-1.119 0-2.162 .2734-3.268 .3301L232.1 161.3c-2-8.562-10.34-13.84-19.25-11.91C204.3 151.5 198.1 160.1 201 168.7L221.6 256H179.8C173.7 256 168.2 252.6 165.5 247.2l-41.5-82.98C112.8 141.9 90.38 128 65.44 128C29.34 128 0 157.4 0 193.4v91.98c0 17.17 9.25 33.16 24.19 41.69l89.94 51.39l30.34 121.4C146.3 507.2 152.8 512 160 512c1.281 0 2.594-.1562 3.875-.4844c8.594-2.141 13.78-10.83 11.66-19.39l-32-128c-1.062-4.234-3.812-7.859-7.594-10.02L40.06 299.3C35.09 296.5 32 291.2 32 285.4V193.4C32 175 47 160 65.44 160c12.75 0 24.22 7.078 29.91 18.48l41.5 82.97C145 277.8 161.5 288 179.8 288h49.37l24.99 105.9C236.1 405.2 223.1 425.2 223.1 448c0 35.3 28.72 64 63.1 64c31.08 0 57.01-22.29 62.76-51.72l149.8-44.95C509.1 412.8 513.9 403.9 511.3 395.4zM288 480c-17.66 0-32-14.36-32-32s14.34-32 32-32s32 14.36 32 32S305.7 480 288 480zM16 352C7.156 352 0 359.2 0 368v128C0 504.8 7.156 512 16 512S32 504.8 32 496v-128C32 359.2 24.84 352 16 352z"/></svg>
